src/assets/duotone/Hashtag1.svg

<svg width="24" height="24" viewBox="0 0 24 24"  xmlns="http://www.w3.org/2000/svg">
<path opacity="0.4" d="M16.19 2H7.81C4.17 2 2 4.17 2 7.81V16.18C2 19.83 4.17 22 7.81 22H16.18C19.82 22 21.99 19.83 21.99 16.19V7.81C22 4.17 19.83 2 16.19 2Z" />
<path d="M18.8202 10.5804C19.2202 10.5804 19.5502 10.2504 19.5502 9.85044C19.5502 9.45044 19.2202 9.12044 18.8202 9.12044H15.2102L15.6002 5.62044C15.6402 5.22044 15.3602 4.86044 14.9502 4.81044C14.5502 4.77044 14.1902 5.05044 14.1402 5.46044L13.7302 9.12044H10.9002L11.2902 5.62044C11.3302 5.22044 11.0502 4.86044 10.6402 4.81044C10.2402 4.77044 9.8802 5.05044 9.8302 5.46044L9.4302 9.12044H5.9002C5.5002 9.12044 5.1702 9.45044 5.1702 9.85044C5.1702 10.2504 5.5002 10.5804 5.9002 10.5804H9.2702L8.9502 13.4304H5.1802C4.7802 13.4304 4.4502 13.7604 4.4502 14.1604C4.4502 14.5604 4.7802 14.8904 5.1802 14.8904H8.7902L8.4002 18.3904C8.3602 18.7904 8.6402 19.1504 9.0502 19.2004C9.0802 19.2004 9.1002 19.2004 9.1302 19.2004C9.5002 19.2004 9.81019 18.9204 9.8602 18.5504L10.2702 14.8904H13.1102L12.7202 18.3904C12.6802 18.7904 12.9602 19.1504 13.3702 19.2004C13.4002 19.2004 13.4202 19.2004 13.4502 19.2004C13.8202 19.2004 14.1302 18.9204 14.1802 18.5504L14.5902 14.8904H18.1202C18.5202 14.8904 18.8502 14.5604 18.8502 14.1604C18.8502 13.7604 18.5202 13.4304 18.1202 13.4304H14.7502L15.0702 10.5804H18.8202ZM13.2602 13.4204H10.4202L10.7402 10.5704H13.5802L13.2602 13.4204Z" />
</svg>

<?xml version="1.0" encoding="UTF-8"?>
<svg width="24" height="24" viewBox="0 0 24 24" xmlns="http://www.w3.org/2000/svg">
 <path d="M16.19 2H7.81C4.17 2 2 4.17 2 7.81V16.18C2 19.83 4.17 22 7.81 22H16.18C19.82 22 21.99 19.83 21.99 16.19V7.81C22 4.17 19.83 2 16.19 2Z" opacity=".4"/>
 <path d="m18.82 10.58c0.4 0 0.73-0.33 0.73-0.72996 0-0.4-0.33-0.73-0.73-0.73h-3.61l0.39-3.5c0.04-0.4-0.24-0.76-0.65-0.81-0.4-0.04-0.76 0.24-0.81 0.65l-0.41 3.66h-2.83l0.39-3.5c0.04-0.4-0.24-0.76-0.65-0.81-0.4-0.04-0.76 0.24-0.81 0.65l-0.4 3.66h-3.53c-0.4 0-0.73 0.33-0.73 0.73 0 0.39996 0.33 0.72996 0.73 0.72996h3.37l-0.32 2.85h-3.77c-0.4 0-0.73 0.33-0.73 0.73s0.33 0.73 0.73 0.73h3.61l-0.39 3.5c-0.04 0.4 0.24 0.76 0.65 0.81h0.08c0.37 0 0.67999-0.28 0.73-0.65l0.41-3.66h2.84l-0.39 3.5c-0.04 0.4 0.24 0.76 0.65 0.81h0.08c0.37 0 0.68-0.28 0.73-0.65l0.41-3.66h3.53c0.4 0 0.73-0.33 0.73-0.73s-0.33-0.73-0.73-0.73h-3.37l0.32-2.85h3.75zm-5.56 2.84h-2.84l0.32-2.85h2.84l-0.32 2.85z"/>
</svg>
